src/web/images/codelabs.svg

<?xml version="1.0" encoding="UTF-8" standalone="no"?>
<!-- Created with Inkscape (http://www.inkscape.org/) -->

<svg
   xmlns:dc="http://purl.org/dc/elements/1.1/"
   xmlns:cc="http://creativecommons.org/ns#"
   xmlns:rdf="http://www.w3.org/1999/02/22-rdf-syntax-ns#"
   xmlns:svg="http://www.w3.org/2000/svg"
   xmlns="http://www.w3.org/2000/svg"
   xmlns:sodipodi="http://sodipodi.sourceforge.net/DTD/sodipodi-0.dtd"
   xmlns:inkscape="http://www.inkscape.org/namespaces/inkscape"
   id="svg4136"
   version="1.1"
   inkscape:version="0.91 r13725"
   xml:space="preserve"
   width="214.41338"
   height="243.21988"
   viewBox="0 0 214.41338 243.21988"
   sodipodi:docname="CodeLabs_Logo.svg"><metadata
     id="metadata4142"><rdf:RDF><cc:Work
         rdf:about=""><dc:format>image/svg+xml</dc:format><dc:type
           rdf:resource="http://purl.org/dc/dcmitype/StillImage" /><dc:title></dc:title></cc:Work></rdf:RDF></metadata><defs
     id="defs4140"><clipPath
       clipPathUnits="userSpaceOnUse"
       id="clipPath4166"><path
         d="m 0,395.991 600,0 L 600,0 0,0 0,395.991 Z"
         id="path4168"
         inkscape:connector-curvature="0" /></clipPath><clipPath
       clipPathUnits="userSpaceOnUse"
       id="clipPath4174"><path
         d="m 236.42,248.091 22.129,0 0,-20.197 -22.129,0 0,20.197 z"
         id="path4176"
         inkscape:connector-curvature="0" /></clipPath><clipPath
       clipPathUnits="userSpaceOnUse"
       id="clipPath4190"><path
         d="m 307.83,236.894 22.465,0 0,-20.197 -22.465,0 0,20.197 z"
         id="path4192"
         inkscape:connector-curvature="0" /></clipPath><clipPath
       clipPathUnits="userSpaceOnUse"
       id="clipPath4214"><path
         d="m 0,395.991 600,0 L 600,0 0,0 0,395.991 Z"
         id="path4216"
         inkscape:connector-curvature="0" /></clipPath></defs><sodipodi:namedview
     pagecolor="#ffffff"
     bordercolor="#666666"
     borderopacity="1"
     objecttolerance="10"
     gridtolerance="10"
     guidetolerance="10"
     inkscape:pageopacity="0"
     inkscape:pageshadow="2"
     inkscape:window-width="1281"
     inkscape:window-height="764"
     id="namedview4138"
     showgrid="false"
     fit-margin-top="0"
     fit-margin-left="0"
     fit-margin-right="0"
     fit-margin-bottom="0"
     inkscape:showpageshadow="false"
     showborder="false"
     inkscape:zoom="1.0444682"
     inkscape:cx="-127.87655"
     inkscape:cy="6.3521415"
     inkscape:window-x="0"
     inkscape:window-y="0"
     inkscape:window-maximized="0"
     inkscape:current-layer="g4144" /><g
     id="g4144"
     inkscape:groupmode="layer"
     inkscape:label="CodeLabs_Logo"
     transform="matrix(1.25,0,0,-1.25,-258.14025,363.791)"
     style="display:inline"><g
       id="g4146"
       transform="translate(309.1536,195.5555)"><path
         d="m 0,0 -40.508,-0.114 61.649,61.649 40.394,0 L 0,0 Z"
         style="fill:#2b5dc1;fill-opacity:1;fill-rule:nonzero;stroke:none"
         id="path4148"
         inkscape:connector-curvature="0" /></g><g
       id="g4150"
       transform="translate(236.4197,227.8944)"><path
         d="M 0,0 0.001,40.395 21.143,61.537 41.34,41.34 0,0 Z"
         style="fill:#2b5dc1;fill-opacity:1;fill-rule:nonzero;stroke:none"
         id="path4152"
         inkscape:connector-curvature="0" /></g><g
       id="g4154"
       transform="translate(288.9565,215.7524)"><path
         d="M 0,0 -20.311,-20.311 -52.537,12.142 -32.339,32.339 0,0 Z"
         style="fill:#2051a0;fill-opacity:1;fill-rule:nonzero;stroke:none"
         id="path4156"
         inkscape:connector-curvature="0" /></g><g
       id="g4158"
       transform="translate(350.4919,236.8938)"><path
         d="M 0,0 -20.197,-20.197 -92.933,52.539 -52.518,52.518 0,0 Z"
         style="fill:#3a6de1;fill-opacity:1;fill-rule:nonzero;stroke:none"
         id="path4160"
         inkscape:connector-curvature="0" /></g><g
       id="g4162"><g
         id="g4164"
         clip-path="url(#clipPath4166)"><g
           id="g4170"><g
             id="g4172" /><g
             id="g4178"><g
               clip-path="url(#clipPath4174)"
               id="g4180"
               style="opacity:0.39999402"><g
                 transform="translate(236.4197,227.8944)"
                 id="g4182"><path
                   d="M 0,0 22.129,18.266 20.197,20.197 0,0 Z"
                   style="fill:#231f20;fill-opacity:1;fill-rule:nonzero;stroke:none"
                   id="path4184"
                   inkscape:connector-curvature="0" /></g></g></g></g><g
           id="g4186"><g
             id="g4188" /><g
             id="g4194"><g
               clip-path="url(#clipPath4190)"
               id="g4196"
               style="opacity:0.39999402"><g
                 transform="translate(330.2949,216.6968)"
                 id="g4198"><path
                   d="M 0,0 -20.197,20.197 -22.464,17.93 0,0 Z"
                   style="fill:#231f20;fill-opacity:1;fill-rule:nonzero;stroke:none"
                   id="path4200"
                   inkscape:connector-curvature="0" /></g></g></g></g></g></g><g
       id="g4202"
       transform="translate(244.632,97.7318)"
       style="fill:#2945b5;fill-opacity:1"><path
         d="m 0,0 7.391,0 0,-1.069 -8.666,0 0,14.968 1.275,0 L 0,0 Z"
         style="fill:#2945b5;fill-opacity:1;fill-rule:nonzero;stroke:none"
         id="path4204"
         inkscape:connector-curvature="0" /></g><g
       id="g4206"
       transform="translate(272.9783,101.83385)"
       style="fill:#2945b5;fill-opacity:1"><path
         d="M 0,0 6.004,0 3.002,8.152 0,0 Z m 6.404,-1.069 -6.795,0 -1.542,-4.205 -1.326,0 5.665,14.968 1.202,0 5.665,-14.968 -1.316,0 -1.553,4.205 z"
         style="fill:#2945b5;fill-opacity:1;fill-rule:nonzero;stroke:none"
         id="path4208"
         inkscape:connector-curvature="0" /></g><g
       id="g4210"><g
         id="g4212"
         clip-path="url(#clipPath4214)"><g
           id="g4218"
           transform="translate(301.9323,103.8483)"><path
             d="m 0,0 0,-6.117 3.793,0 c 1.084,0 1.942,0.275 2.575,0.825 0.634,0.553 0.951,1.316 0.951,2.295 0,0.923 -0.303,1.655 -0.909,2.19 C 5.803,-0.267 4.965,0 3.896,0 L 0,0 Z m 0,1.069 3.454,0 c 1.055,0.021 1.872,0.27 2.452,0.745 0.579,0.478 0.869,1.175 0.869,2.087 0,0.961 -0.3,1.671 -0.9,2.128 -0.6,0.455 -1.506,0.684 -2.719,0.684 L 0,6.713 0,1.069 Z m -1.264,-8.255 0,14.968 4.42,0 C 4.76,7.782 5.977,7.45 6.805,6.79 7.634,6.127 8.049,5.153 8.049,3.863 8.049,3.089 7.838,2.413 7.417,1.843 6.996,1.27 6.419,0.858 5.685,0.612 6.555,0.421 7.256,-0.008 7.787,-0.671 8.318,-1.336 8.584,-2.102 8.584,-2.973 8.584,-4.294 8.157,-5.328 7.304,-6.07 6.451,-6.813 5.263,-7.186 3.742,-7.186 l -5.006,0 z"
             style="fill:#2945b5;fill-opacity:1;fill-rule:nonzero;stroke:none"
             id="path4220"
             inkscape:connector-curvature="0" /></g><g
           id="g4222"
           transform="translate(338.3227,100.3429)"><path
             d="m 0,0 c 0,0.83 -0.293,1.485 -0.874,1.969 -0.583,0.483 -1.65,0.943 -3.197,1.377 -1.55,0.434 -2.68,0.91 -3.392,1.424 -1.015,0.727 -1.522,1.678 -1.522,2.858 0,1.143 0.471,2.074 1.414,2.791 0.94,0.717 2.146,1.074 3.613,1.074 0.992,0 1.881,-0.193 2.668,-0.576 C -0.506,10.534 0.103,10 0.535,9.314 0.966,8.627 1.182,7.864 1.182,7.021 l -1.275,0 c 0,1.023 -0.349,1.848 -1.048,2.47 -0.699,0.622 -1.64,0.933 -2.817,0.933 -1.146,0 -2.056,-0.257 -2.734,-0.766 C -7.371,9.144 -7.71,8.478 -7.71,7.653 -7.71,6.893 -7.407,6.271 -6.795,5.79 -6.186,5.31 -5.209,4.886 -3.865,4.518 -2.524,4.151 -1.506,3.77 -0.812,3.377 -0.121,2.984 0.401,2.511 0.75,1.963 1.1,1.416 1.275,0.768 1.275,0.021 c 0,-1.18 -0.473,-2.126 -1.414,-2.838 -0.943,-0.712 -2.184,-1.069 -3.726,-1.069 -1.057,0 -2.025,0.188 -2.904,0.566 -0.882,0.377 -1.55,0.904 -2.005,1.583 -0.457,0.678 -0.684,1.457 -0.684,2.333 l 1.265,0 c 0,-1.056 0.393,-1.889 1.182,-2.498 0.786,-0.609 1.835,-0.915 3.146,-0.915 1.164,0 2.099,0.257 2.806,0.771 C -0.355,-1.532 0,-0.851 0,0"
             style="fill:#2945b5;fill-opacity:1;fill-rule:nonzero;stroke:none"
             id="path4224"
             inkscape:connector-curvature="0" /></g><g
           id="g4226"
           transform="translate(244.1822,140.9144)"><path
             d="m 0,0 c -0.359,-4.97 -2.195,-8.885 -5.506,-11.741 -3.311,-2.857 -7.675,-4.284 -13.09,-4.284 -5.926,0 -10.584,1.994 -13.981,5.981 -3.396,3.988 -5.093,9.463 -5.093,16.424 l 0,2.826 c 0,4.443 0.782,8.354 2.348,11.741 1.565,3.385 3.803,5.983 6.713,7.791 2.908,1.809 6.288,2.714 10.14,2.714 5.331,0 9.626,-1.428 12.884,-4.285 3.258,-2.856 5.141,-6.865 5.649,-12.027 l -9.521,0 c -0.234,2.982 -1.063,5.146 -2.491,6.489 -1.428,1.346 -3.602,2.016 -6.521,2.016 -3.175,0 -5.55,-1.139 -7.126,-3.412 C -27.171,17.96 -27.98,14.43 -28.023,9.65 l 0,-3.493 c 0,-4.993 0.757,-8.642 2.27,-10.948 1.512,-2.307 3.898,-3.46 7.157,-3.46 2.94,0 5.135,0.673 6.584,2.016 1.449,1.343 2.28,3.423 2.492,6.235 L 0,0 Z"
             style="fill:#161616;fill-opacity:1;fill-rule:nonzero;stroke:none"
             id="path4228"
             inkscape:connector-curvature="0" /></g><g
           id="g4230"
           transform="translate(281.2856,149.6737)"><path
             d="m 0,0 c 0,4.845 -0.868,8.528 -2.602,11.046 -1.736,2.516 -4.211,3.775 -7.426,3.775 -3.196,0 -5.66,-1.242 -7.396,-3.727 -1.735,-2.488 -2.613,-6.132 -2.634,-10.935 l 0,-2.253 c 0,-4.719 0.868,-8.377 2.602,-10.979 1.736,-2.603 4.232,-3.904 7.49,-3.904 3.195,0 5.649,1.254 7.364,3.761 1.713,2.505 2.58,6.16 2.602,10.963 L 0,0 Z m 9.647,-2.094 c 0,-4.549 -0.804,-8.536 -2.411,-11.965 -1.608,-3.426 -3.909,-6.07 -6.904,-7.933 -2.993,-1.862 -6.426,-2.792 -10.298,-2.792 -3.829,0 -7.247,0.919 -10.25,2.762 -3.004,1.84 -5.332,4.467 -6.982,7.885 -1.65,3.418 -2.486,7.346 -2.507,11.789 l 0,2.287 c 0,4.548 0.819,8.552 2.46,12.012 1.639,3.458 3.955,6.113 6.95,7.965 2.993,1.851 6.415,2.777 10.267,2.777 3.85,0 7.272,-0.926 10.265,-2.777 2.994,-1.852 5.311,-4.507 6.95,-7.965 1.641,-3.46 2.46,-7.455 2.46,-11.982 l 0,-2.063 z"
             style="fill:#161616;fill-opacity:1;fill-rule:nonzero;stroke:none"
             id="path4232"
             inkscape:connector-curvature="0" /></g><g
           id="g4234"
           transform="translate(310.1282,164.0203)"><path
             d="m 0,0 0,-30.849 4.602,0 c 3.723,0 6.568,1.218 8.537,3.65 1.966,2.435 2.971,5.914 3.013,10.443 l 0,2.443 c 0,4.696 -0.972,8.257 -2.918,10.677 C 11.285,-1.212 8.44,0 4.697,0 L 0,0 Z m -9.522,-38.497 0,46.208 14.219,0 c 4.061,0 7.694,-0.915 10.899,-2.745 3.206,-1.83 5.707,-4.433 7.506,-7.806 1.801,-3.376 2.7,-7.209 2.7,-11.507 l 0,-2.124 c 0,-4.295 -0.885,-8.115 -2.65,-11.457 -1.768,-3.342 -4.261,-5.936 -7.475,-7.776 -3.217,-1.841 -6.847,-2.773 -10.885,-2.793 l -14.314,0 z"
             style="fill:#161616;fill-opacity:1;fill-rule:nonzero;stroke:none"
             id="path4236"
             inkscape:connector-curvature="0" /></g><g
           id="g4238"
           transform="translate(373.2679,145.6138)"><path
             d="m 0,0 -18.281,0 0,-12.442 21.456,0 0,-7.648 -30.975,0 0,46.207 30.911,0 0,-7.71 -21.392,0 0,-11.013 L 0,7.394 0,0 Z"
             style="fill:#161616;fill-opacity:1;fill-rule:nonzero;stroke:none"
             id="path4240"
             inkscape:connector-curvature="0" /></g><g
           id="g4242"
           transform="translate(352.4866,287.2954)" /><g
           id="g4246"
           transform="translate(344.6854,278.6552)" /><g
           id="g4250"
           transform="translate(354.6228,267.7753)" /></g></g></g></svg>

<?xml version="1.0" encoding="UTF-8" standalone="no"?>
<!-- Created with Inkscape (http://www.inkscape.org/) -->

<svg
   xmlns:dc="http://purl.org/dc/elements/1.1/"
   xmlns:cc="http://creativecommons.org/ns#"
   xmlns:rdf="http://www.w3.org/1999/02/22-rdf-syntax-ns#"
   xmlns:svg="http://www.w3.org/2000/svg"
   xmlns="http://www.w3.org/2000/svg"
   xmlns:sodipodi="http://sodipodi.sourceforge.net/DTD/sodipodi-0.dtd"
   xmlns:inkscape="http://www.inkscape.org/namespaces/inkscape"
   id="svg4136"
   version="1.1"
   inkscape:version="0.92.1 r15371"
   xml:space="preserve"
   width="228.7076"
   height="259.43454"
   viewBox="0 0 214.41338 143.21988"
   sodipodi:docname="codelabs_icon.svg"><metadata
     id="metadata4142"><rdf:RDF><cc:Work
         rdf:about=""><dc:format>image/svg+xml</dc:format><dc:type
           rdf:resource="http://purl.org/dc/dcmitype/StillImage" /><dc:title /></cc:Work></rdf:RDF></metadata><defs
     id="defs4140"><clipPath
       clipPathUnits="userSpaceOnUse"
       id="clipPath4166"><path
         d="M 0,395.991 H 600 V 0 H 0 Z"
         id="path4168"
         inkscape:connector-curvature="0" /></clipPath><clipPath
       clipPathUnits="userSpaceOnUse"
       id="clipPath4174"><path
         d="m 236.42,248.091 h 22.129 V 227.894 H 236.42 Z"
         id="path4176"
         inkscape:connector-curvature="0" /></clipPath><clipPath
       clipPathUnits="userSpaceOnUse"
       id="clipPath4190"><path
         d="m 307.83,236.894 h 22.465 V 216.697 H 307.83 Z"
         id="path4192"
         inkscape:connector-curvature="0" /></clipPath><clipPath
       clipPathUnits="userSpaceOnUse"
       id="clipPath4214"><path
         d="M 0,395.991 H 600 V 0 H 0 Z"
         id="path4216"
         inkscape:connector-curvature="0" /></clipPath></defs><sodipodi:namedview
     pagecolor="#ffffff"
     bordercolor="#666666"
     borderopacity="1"
     objecttolerance="10"
     gridtolerance="10"
     guidetolerance="10"
     inkscape:pageopacity="0"
     inkscape:pageshadow="2"
     inkscape:window-width="1991"
     inkscape:window-height="1341"
     id="namedview4138"
     showgrid="false"
     fit-margin-top="0"
     fit-margin-left="0"
     fit-margin-right="0"
     fit-margin-bottom="0"
     inkscape:showpageshadow="false"
     showborder="false"
     inkscape:zoom="1.0444682"
     inkscape:cx="-127.87655"
     inkscape:cy="159.54015"
     inkscape:window-x="75"
     inkscape:window-y="34"
     inkscape:window-maximized="0"
     inkscape:current-layer="g4144" /><g
     id="g4144"
     inkscape:groupmode="layer"
     inkscape:label="CodeLabs_Logo"
     transform="matrix(1.25,0,0,-1.25,-258.14025,363.791)"
     style="display:inline"><g
       id="g4146"
       transform="translate(309.1536,195.5555)"><path
         d="M 0,0 -40.508,-0.114 21.141,61.535 H 61.535 Z"
         style="fill:#2b5dc1;fill-opacity:1;fill-rule:nonzero;stroke:none"
         id="path4148"
         inkscape:connector-curvature="0" /></g><g
       id="g4150"
       transform="translate(236.4197,227.8944)"><path
         d="M 0,0 0.001,40.395 21.143,61.537 41.34,41.34 Z"
         style="fill:#2b5dc1;fill-opacity:1;fill-rule:nonzero;stroke:none"
         id="path4152"
         inkscape:connector-curvature="0" /></g><g
       id="g4154"
       transform="translate(288.9565,215.7524)"><path
         d="m 0,0 -20.311,-20.311 -32.226,32.453 20.198,20.197 z"
         style="fill:#2051a0;fill-opacity:1;fill-rule:nonzero;stroke:none"
         id="path4156"
         inkscape:connector-curvature="0" /></g><g
       id="g4158"
       transform="translate(350.4919,236.8938)"><path
         d="m 0,0 -20.197,-20.197 -72.736,72.736 40.415,-0.021 z"
         style="fill:#3a6de1;fill-opacity:1;fill-rule:nonzero;stroke:none"
         id="path4160"
         inkscape:connector-curvature="0" /></g><g
       id="g4162"><g
         id="g4164"
         clip-path="url(#clipPath4166)"><g
           id="g4170"><g
             id="g4172" /><g
             id="g4178"><g
               clip-path="url(#clipPath4174)"
               id="g4180"
               style="opacity:0.39999402"><g
                 transform="translate(236.4197,227.8944)"
                 id="g4182"><path
                   d="m 0,0 22.129,18.266 -1.932,1.931 z"
                   style="fill:#231f20;fill-opacity:1;fill-rule:nonzero;stroke:none"
                   id="path4184"
                   inkscape:connector-curvature="0" /></g></g></g></g><g
           id="g4186"><g
             id="g4188" /><g
             id="g4194"><g
               clip-path="url(#clipPath4190)"
               id="g4196"
               style="opacity:0.39999402"><g
                 transform="translate(330.2949,216.6968)"
                 id="g4198"><path
                   d="M 0,0 -20.197,20.197 -22.464,17.93 Z"
                   style="fill:#231f20;fill-opacity:1;fill-rule:nonzero;stroke:none"
                   id="path4200"
                   inkscape:connector-curvature="0" /></g></g></g></g></g></g></g></svg>
